app/dist/common/images/amedisys.svg

<svg height="18" width="18" xmlns="http://www.w3.org/2000/svg"><path d="m0 0h18v18h-18z" fill="#7aaa6c"/><g fill="#fff"><path d="m8.455 5.174-5.455 5.501h1.273l4.727-4.768 4.818 4.768h1.182l-2.727-2.75v-2.019h-.727v1.284l-2-2.017c-.182-.184-.819-.275-1.091 0z"/><path d="m8.7 9.308v1.538h-1.5v.615h1.5v1.539h.6v-1.539h1.5v-.615h-1.5v-1.538z"/></g></svg>

<!-- by TradingView --><svg width="18" height="18" xmlns="http://www.w3.org/2000/svg"><path fill="#7AAA6C" d="M0 0h18v18H0z"/><path d="M8.455 5.174L3 10.675h1.273L9 5.907l4.818 4.768H15l-2.727-2.75V5.906h-.727v1.284l-2-2.017c-.182-.184-.819-.275-1.091 0z" fill="#fff"/><path d="M8.7 9.308v1.538H7.2v.615h1.5V13h.6v-1.539h1.5v-.615H9.3V9.308h-.6z" fill="#fff"/></svg>
